!!!OTL: Song Zhangfu
!!!ARE: Asia, China,ÿGansu Qingyang
!! I, 122
!!!SCT: C1817
!!!YEM: Copyright 1995, estate of Helmut Schaffrath.
**kern
*ICvox
*Ivox
*M2/4
*k[b-]
*F:
{8dd
4dd
8cc
=1
4a
4cc
=2
4.dd
8cc
=3
2dd}
=4
{4.dd
8ee
=5
8dd
8ee
8cc
8a
=6
4.g
8e
=7
2g}
=8
{4.a
8cc
=9
4dd
8dd
8ee
=10
4dd
8cc
8a
=11
4g
4d}
=12
{8a
4a
8cc
=13
8a
8cc
8f
8e
=14
4.d
8c
=15
2d}
==
!!!AGN: Xiaodiao
!! Han
!!!ONB: ESAC (Essen Associative Code) Database: SENGANSU
!!!AMT: simple duple
!!!AIN: vox
!!!EED: Helmut Schaffrath
!!!EEV: 1.0
*-
